X: 1
T: The Blackbird From Clough
R: march
M: 4/4
L: 1/8
K: Gmaj
gfgA B2BA|B2BA Bddf|gfgA B2ef|gfed efgz|
gfgA B2BA|B2BA Bddf|gfgA B2ef|1 gfed e4:|2 gfed e3B||
edef g2fg|afdf afed|edef g2fg|afed e3B|
edef g2fg|afdf a2ga|bgaf gfef|1 gfed e3B:|2 gfed e3z||

